X:239
T:Paddy's trip to Scotland
R:Reel
O:Ireland
D:Altan: Celtic Collections
B:Mel Bay's Irish Session Tune Book- same version, more or less...
S:Altan: Celtic Collections
Z:Transcription, chords:Mike Long
M:C|
L:1/8
K:D
"D"dA~A2 "Bm"BAGF|"G"GABd "A"cABc|"G"~d2ed "A"cABc|"D"dfed "A"cABc|\
"D"dA~A2 "Bm"BAGF|"G"GABd "A"cABc|
"G"~d2ed "A"cABc|[1 "D"df"A"ec "D"d2 (3(ABc):|[2 "D"df"A"ec "D"dAFG\
|:"D"Adfd Adfd|Adfd dcBc|"A"Acec Acec|
"A"Acec "G"dcBc|\
"D"Adfd Adfd|Adfd dcB^g|"A"aA~A2 "G"dcBA|\
[1 "G"(3(Bcd) "A"ec "D"dAFG:|[2 "G"(3(Bcd) "A"ec "D"d2Bc|]
